app/assets/images/landing/roles/usagers.svg

<svg height="96" viewBox="0 0 94 96" width="94" xmlns="http://www.w3.org/2000/svg"><g fill="none" fill-rule="evenodd"><path d="m17.334 12.334h39" stroke="#0069cc" stroke-linecap="round" stroke-linejoin="round" stroke-width="2"/><path d="m26.09 7.316a2 2 0 1 1 -4.002-.001 2 2 0 0 1 4.002.001m6 0a2 2 0 1 1 -4.002-.001 2 2 0 0 1 4.002.001m6 0a2 2 0 1 1 -4.002-.001 2 2 0 0 1 4.002.001" fill="#0069cc"/><path d="m82.334 39.334h-55m55 9h-53m53 8h-47.339m47.339 9h-42.982m14.982-35h-27m31 44h-19.313m-1.687 20h52.773c1.506 0 2.227-2.268 2.227-3.773v-59.227m-31-29h-40.773c-1.506 0-3.227.174-3.227 1.68v43.32" stroke="#0069cc" stroke-linecap="round" stroke-linejoin="round" stroke-width="2"/><path d="m62.284 30.249s2.225-6.485 2.104-6.69l-.033-.056a14.908 14.908 0 0 1 -2.019-7.503c0-8.284 6.715-15 14.998-15 8.285 0 15 6.716 15 15s-6.715 15-15 15c-3.072 0-5.926-.929-8.306-2.513.003.001.013.01.013.01z" fill="#d9e9fd"/><path d="m62.284 30.249s2.225-6.485 2.104-6.69l-.033-.056a14.908 14.908 0 0 1 -2.019-7.503c0-8.284 6.715-15 14.998-15 8.285 0 15 6.716 15 15s-6.715 15-15 15c-3.072 0-5.926-.929-8.306-2.513.003.001.013.01.013.01z" stroke="#0069cc" stroke-linecap="round" stroke-linejoin="round" stroke-width="2"/><path d="m71.667 16.167a1.501 1.501 0 1 1 -3.002 0 1.501 1.501 0 0 1 3.002 0m7.086 0a1.501 1.501 0 1 1 -3.002 0 1.501 1.501 0 0 1 3.002 0m7.086 0a1.501 1.501 0 1 1 -3.002 0 1.501 1.501 0 0 1 3.002 0" fill="#0069cc"/><path d="m1 87.05c4.277 4.37 10.235 7.094 16.834 7.094s12.555-2.725 16.833-7.096c-1.229-4.143-4.164-8.141-10.997-8.141 0 0-2.18 2.123-5.836 2.123-3.659 0-5.836-2.123-5.836-2.123-6.834 0-9.768 3.998-10.998 8.143" fill="#d9e9fd"/><path d="m1 87.05c4.277 4.37 10.235 7.094 16.834 7.094s12.555-2.725 16.833-7.096c-1.229-4.143-4.164-8.141-10.997-8.141 0 0-2.18 2.123-5.836 2.123-3.659 0-5.836-2.123-5.836-2.123-6.834 0-9.768 3.998-10.998 8.143z" stroke="#0069cc" stroke-linecap="round" stroke-linejoin="round" stroke-width="2"/><path d="m17.834 72.32c5.044 0 9.138-4.069 9.138-9.083 0-5.025-4.094-9.094-9.138-9.094s-9.138 4.07-9.138 9.094c0 5.014 4.096 9.082 9.138 9.082" fill="#d9e9fd"/><path d="m17.834 72.32c5.044 0 9.138-4.069 9.138-9.083 0-5.025-4.094-9.094-9.138-9.094s-9.138 4.07-9.138 9.094c0 5.014 4.096 9.082 9.138 9.082z" stroke="#0069cc" stroke-linecap="round" stroke-linejoin="round" stroke-width="2"/></g></svg>

<svg width="94" height="96" viewBox="0 0 94 96" xmlns="http://www.w3.org/2000/svg"><title>usager</title><g fill="none" fill-rule="evenodd"><path d="M17.334 12.334h39" stroke="#0069CC" stroke-width="2" stroke-linecap="round" stroke-linejoin="round"/><path d="M26.09 7.316a2 2 0 1 1-4.002-.001 2 2 0 0 1 4.002.001M32.09 7.316a2 2 0 1 1-4.002-.001 2 2 0 0 1 4.002.001M38.09 7.316a2 2 0 1 1-4.002-.001 2 2 0 0 1 4.002.001" fill="#0069CC"/><path d="M82.334 39.334h-55M82.334 48.334h-53M82.334 56.334H34.995M82.334 65.334H39.352M54.334 30.334h-27M58.334 74.334H39.021M37.334 94.334h52.773c1.506 0 2.227-2.268 2.227-3.773V31.334M61.334 2.334H20.561c-1.506 0-3.227.174-3.227 1.68v43.32" stroke="#0069CC" stroke-width="2" stroke-linecap="round" stroke-linejoin="round"/><g><path d="M62.284 30.249s2.225-6.485 2.104-6.69l-.033-.056A14.908 14.908 0 0 1 62.336 16c0-8.284 6.715-15 14.998-15 8.285 0 15 6.716 15 15 0 8.284-6.715 15-15 15-3.072 0-5.926-.929-8.306-2.513.003.001.013.01.013.01l-6.757 1.752z" fill="#D9E9FD"/><path d="M62.284 30.249s2.225-6.485 2.104-6.69l-.033-.056A14.908 14.908 0 0 1 62.336 16c0-8.284 6.715-15 14.998-15 8.285 0 15 6.716 15 15 0 8.284-6.715 15-15 15-3.072 0-5.926-.929-8.306-2.513.003.001.013.01.013.01l-6.757 1.752z" stroke="#0069CC" stroke-width="2" stroke-linecap="round" stroke-linejoin="round"/><path d="M71.667 16.167a1.501 1.501 0 1 1-3.002 0 1.501 1.501 0 0 1 3.002 0M78.753 16.167a1.501 1.501 0 1 1-3.002 0 1.501 1.501 0 0 1 3.002 0M85.839 16.167a1.501 1.501 0 1 1-3.002 0 1.501 1.501 0 0 1 3.002 0" fill="#0069CC"/></g><g><path d="M1 87.05c4.277 4.37 10.235 7.094 16.834 7.094s12.555-2.725 16.833-7.096c-1.229-4.143-4.164-8.141-10.997-8.141 0 0-2.18 2.123-5.836 2.123-3.659 0-5.836-2.123-5.836-2.123-6.834 0-9.768 3.998-10.998 8.143" fill="#D9E9FD"/><path d="M1 87.05c4.277 4.37 10.235 7.094 16.834 7.094s12.555-2.725 16.833-7.096c-1.229-4.143-4.164-8.141-10.997-8.141 0 0-2.18 2.123-5.836 2.123-3.659 0-5.836-2.123-5.836-2.123-6.834 0-9.768 3.998-10.998 8.143z" stroke="#0069CC" stroke-width="2" stroke-linecap="round" stroke-linejoin="round"/><path d="M17.834 72.32c5.044 0 9.138-4.069 9.138-9.083 0-5.025-4.094-9.094-9.138-9.094s-9.138 4.07-9.138 9.094c0 5.014 4.096 9.082 9.138 9.082" fill="#D9E9FD"/><path d="M17.834 72.32c5.044 0 9.138-4.069 9.138-9.083 0-5.025-4.094-9.094-9.138-9.094s-9.138 4.07-9.138 9.094c0 5.014 4.096 9.082 9.138 9.082z" stroke="#0069CC" stroke-width="2" stroke-linecap="round" stroke-linejoin="round"/></g></g></svg>
